Simply-Blue-Circles/scalable/categories/applications-multimedia.svg

<svg xmlns="http://www.w3.org/2000/svg" width="48" height="48" viewBox="0 0 12.7 12.7"><path fill="#2c89a0" d="M6.344.077A6.267 6.267 0 0 0 .076 6.344a6.267 6.267 0 0 0 6.268 6.267 6.267 6.267 0 0 0 6.267-6.267A6.267 6.267 0 0 0 6.344.077zm-.018.932a5.388 5.388 0 0 1 5.388 5.39 5.388 5.388 0 0 1-5.388 5.387A5.388 5.388 0 0 1 .937 6.398a5.388 5.388 0 0 1 5.39-5.389zM2.763 2.643l-.026.01-.012.026v5.877c.019.104-.04.25.038.324H5.09c-.282.237-.477.568-.48.95-.036.54.484.987 1.008.937.71-.036 1.36-.723 1.285-1.458V8.88h1.084a1.185 1.185 0 0 0-.076.269c-.106.473.224.948.676 1.083.844.277 1.789-.54 1.69-1.413-.003-1.638.006-3.276 0-4.914-.02-.163-.147-.327-.324-.32h-.001c-.582.093-1.165.183-1.748.272V2.644H3.667zm.904.245h3.597v1.116c-.24.038-.482.074-.722.113-.309.155-.198.55-.218.827v.795H3.667zm-.663.037h.379v.379h-.379zm4.539 0h.378v.379h-.378zm-4.539.757h.379v.378h-.379zm4.539 0h.378v.22l-.378.06zm-4.539.757h.379v.378h-.379zm6.706.659v2.966c-.538-.155-1.148.056-1.506.475V5.322a230.21 230.21 0 0 1 1.506-.224zm-6.706.096h.379v.378h-.379zm4.917.17v.208h-.378v-.15l.378-.057zm-.657.099v.276h-.361v-.222l.36-.054zm-4.26.488h.379v.378h-.379zm4.539 0h.378v.378h-.378zm-3.876.032h2.657v2.565a1.396 1.396 0 0 0-.837.089h-1.82zm3.236 0h.36v2.573a.364.364 0 0 1 .003.08h-.363zm-3.899.724h.379v.378h-.379zm4.539 0h.378v.378h-.378zm-4.539.757h.379v.377h-.379zm4.539 0h.378v.377h-.378zm-4.539.755h.379v.379h-.379zm4.539 0h.378v.379h-.378z"/></svg>

<?xml version="1.0" encoding="UTF-8" standalone="no"?>
<svg
   xmlns:dc="http://purl.org/dc/elements/1.1/"
   xmlns:cc="http://creativecommons.org/ns#"
   xmlns:rdf="http://www.w3.org/1999/02/22-rdf-syntax-ns#"
   xmlns:svg="http://www.w3.org/2000/svg"
   xmlns="http://www.w3.org/2000/svg"
   xmlns:sodipodi="http://sodipodi.sourceforge.net/DTD/sodipodi-0.dtd"
   xmlns:inkscape="http://www.inkscape.org/namespaces/inkscape"
   width="48"
   height="48"
   viewBox="0 0 12.7 12.7"
   version="1.1"
   id="svg4"
   sodipodi:docname="applications-multimedia.svg"
   inkscape:version="0.92.4 (5da689c313, 2019-01-14)">
  <metadata
     id="metadata10">
    <rdf:RDF>
      <cc:Work
         rdf:about="">
        <dc:format>image/svg+xml</dc:format>
        <dc:type
           rdf:resource="http://purl.org/dc/dcmitype/StillImage" />
        <dc:title></dc:title>
      </cc:Work>
    </rdf:RDF>
  </metadata>
  <defs
     id="defs8" />
  <sodipodi:namedview
     pagecolor="#ffffff"
     bordercolor="#666666"
     borderopacity="1"
     objecttolerance="10"
     gridtolerance="10"
     guidetolerance="10"
     inkscape:pageopacity="0"
     inkscape:pageshadow="2"
     inkscape:window-width="1087"
     inkscape:window-height="480"
     id="namedview6"
     showgrid="false"
     inkscape:zoom="4.9166667"
     inkscape:cx="2.1355932"
     inkscape:cy="24"
     inkscape:window-x="0"
     inkscape:window-y="25"
     inkscape:window-maximized="0"
     inkscape:current-layer="svg4" />
  <path
     d="M 6.344,0.077 A 6.267,6.267 0 0 0 0.076,6.344 6.267,6.267 0 0 0 6.344,12.611 6.267,6.267 0 0 0 12.611,6.344 6.267,6.267 0 0 0 6.344,0.077 Z M 6.326,1.009 A 5.388,5.388 0 0 1 11.714,6.399 5.388,5.388 0 0 1 6.326,11.786 5.388,5.388 0 0 1 0.937,6.398 5.388,5.388 0 0 1 6.327,1.009 Z M 2.763,2.643 2.737,2.653 2.725,2.679 V 8.556 C 2.744,8.66 2.685,8.806 2.763,8.88 H 5.09 C 4.808,9.117 4.613,9.448 4.61,9.83 c -0.036,0.54 0.484,0.987 1.008,0.937 0.71,-0.036 1.36,-0.723 1.285,-1.458 V 8.88 H 7.987 A 1.185,1.185 0 0 0 7.911,9.149 c -0.106,0.473 0.224,0.948 0.676,1.083 0.844,0.277 1.789,-0.54 1.69,-1.413 -0.003,-1.638 0.006,-3.276 0,-4.914 C 10.257,3.742 10.13,3.578 9.953,3.585 H 9.952 C 9.37,3.678 8.787,3.768 8.204,3.857 V 2.644 H 3.667 Z M 3.667,2.888 H 7.264 V 4.004 C 7.024,4.042 6.782,4.078 6.542,4.117 6.233,4.272 6.344,4.667 6.324,4.944 V 5.739 H 3.667 Z M 3.004,2.925 H 3.383 V 3.304 H 3.004 Z m 4.539,0 H 7.921 V 3.304 H 7.543 Z M 3.004,3.682 H 3.383 V 4.06 H 3.004 Z m 4.539,0 h 0.378 v 0.22 L 7.543,3.962 Z M 3.004,4.439 H 3.383 V 4.817 H 3.004 Z M 9.71,5.098 V 8.064 C 9.172,7.909 8.562,8.12 8.204,8.539 V 5.322 A 230.21,230.21 0 0 1 9.71,5.098 Z M 3.004,5.194 H 3.383 V 5.572 H 3.004 Z m 4.917,0.17 V 5.572 H 7.543 V 5.422 L 7.921,5.365 Z M 7.264,5.463 V 5.739 H 6.903 V 5.517 L 7.263,5.463 Z M 3.004,5.951 H 3.383 V 6.329 H 3.004 Z m 4.539,0 H 7.921 V 6.329 H 7.543 Z M 3.667,5.983 H 6.324 V 8.548 A 1.396,1.396 0 0 0 5.487,8.637 h -1.82 z m 3.236,0 h 0.36 v 2.573 a 0.364,0.364 0 0 1 0.003,0.08 H 6.903 Z M 3.004,6.707 H 3.383 V 7.085 H 3.004 Z m 4.539,0 H 7.921 V 7.085 H 7.543 Z M 3.004,7.464 H 3.383 V 7.841 H 3.004 Z m 4.539,0 H 7.921 V 7.841 H 7.543 Z M 3.004,8.219 H 3.383 V 8.598 H 3.004 Z m 4.539,0 H 7.921 V 8.598 H 7.543 Z"
     id="path2"
     inkscape:connector-curvature="0"
     style="fill:#2c89a0" />
</svg>
